X: 3015
T: New Entry.
%R: march
B: Henry Playford "Apollo's Banquet", London 1687 (5th Edition)
F: https://archive.org/details/apollosbanquetco01rugg
Z: 2017 John Chambers <jc:trillian.mit.edu>
M: C|
L: 1/8
K: G
% - - - - - - - - - -
G>AB>G |\
A3d c>Bc>d | B2G2 d>de>=f |\
e3d e>fg>a | f2d2 :: a>fg>a |\
b3a g>ag>f | e3e a>gf>e |
d2d2 d2cB | c3B B3A |\
A3B c>Bc>d | e3f e>de>f |\
g2G>A B>cd>e | d2B2 e2e>B |\
c2de A3G | HG4 |]
% - - - - - - - - - -

%%sep 1 1 500
%%sep 1 1 500

